wp_data/wp-content/themes/eurostone/assets/images/arr_btn.svg

<svg width="31" height="15" viewBox="0 0 31 15" fill="none" xmlns="http://www.w3.org/2000/svg">
<path d="M29.7079 8.17967L22.2093 14.7931C21.853 15.1076 21.3222 15.0579 21.0238 14.6826C20.7253 14.3073 20.7724 13.7482 21.1287 13.4338L26.8515 8.38652H0.851362C0.386801 8.38652 0.00976562 7.98936 0.00976562 7.5C0.00976562 7.01064 0.386801 6.61347 0.851362 6.61347H26.8515L21.1287 1.56619C20.7724 1.25177 20.7253 0.692671 21.0238 0.317375C21.1904 0.108155 21.4288 0 21.6695 0C21.8603 0 22.0516 0.0679674 22.2093 0.206856L29.7085 6.82033C29.8992 6.98877 30.0098 7.23759 30.0098 7.5C30.0098 7.76241 29.8992 8.01123 29.7079 8.17967Z" fill="white"/>
</svg>

<svg width="31" height="15" fill="none" xmlns="http://www.w3.org/2000/svg"><path d="M29.708 8.18l-7.499 6.613a.812.812 0 01-1.185-.11.92.92 0 01.105-1.25l5.723-5.046h-26C.386 8.387.01 7.989.01 7.5c0-.49.377-.887.841-.887h26L21.13 1.566a.92.92 0 01-.105-1.249.813.813 0 011.185-.11l7.5 6.613c.19.169.3.418.3.68 0 .262-.11.511-.301.68z" fill="#fff"/></svg>
